src/containers/site/SiteRobotsScreen/asset/binance.svg

<svg width="178" height="36" viewBox="0 0 178 36" fill="none" xmlns="http://www.w3.org/2000/svg">
<path fill-rule="evenodd" clip-rule="evenodd" d="M17.9999 8.13654L11.0087 15.1275L6.9408 11.0595L17.9999 0L29.0626 11.0632L24.9947 15.1312L17.9999 8.13654ZM8.13585 17.9993L4.06792 13.9316L0 17.9996L4.06792 22.0676L8.13585 17.9993ZM11.0087 20.8725L17.9999 27.8635L24.9944 20.8691L29.0646 24.9348L29.0626 24.9371L17.9999 36L6.94052 24.9408L6.93483 24.9351L11.0087 20.8725ZM31.9324 22.0693L36 18.0013L31.9321 13.9333L27.8642 18.0016L31.9324 22.0693Z" fill="#B5B5B5"/>
<path fill-rule="evenodd" clip-rule="evenodd" d="M151.07 28C149.688 28 148.405 27.7548 147.22 27.2654C146.035 26.7759 145.012 26.1063 144.151 25.2576C143.289 24.4091 142.616 23.4075 142.132 22.2528C141.647 21.0979 141.405 19.8645 141.405 18.5523V18.5C141.405 17.1878 141.647 15.959 142.132 14.8128C142.616 13.667 143.289 12.6609 144.151 11.7949C145.012 10.9289 146.044 10.2463 147.247 9.74778C148.449 9.24926 149.778 9 151.232 9C152.111 9 152.914 9.07032 153.641 9.20986C154.368 9.35022 155.027 9.54229 155.62 9.78717C156.199 10.0253 156.75 10.3245 157.262 10.6794C157.761 11.0264 158.229 11.4127 158.662 11.8343L156.024 14.7997C155.287 14.1526 154.538 13.6448 153.776 13.2776C153.012 12.9104 152.156 12.7266 151.204 12.7266C150.415 12.7266 149.683 12.8754 149.011 13.1728C148.35 13.4614 147.758 13.8814 147.274 14.406C146.789 14.9308 146.412 15.539 146.143 16.2299C145.874 16.9213 145.74 17.6603 145.74 18.4475V18.4997C145.74 19.2869 145.874 20.0308 146.143 20.7302C146.412 21.4304 146.784 22.0424 147.26 22.5672C147.736 23.092 148.31 23.5079 148.983 23.814C149.657 24.1205 150.397 24.2732 151.204 24.2732C152.282 24.2732 153.192 24.0808 153.937 23.6958C154.682 23.3114 155.423 22.7864 156.158 22.1212L158.797 24.7194C158.33 25.2104 157.826 25.6666 157.289 26.0839C156.761 26.4911 156.187 26.839 155.579 27.1209C154.96 27.4093 154.282 27.6284 153.547 27.7767C152.81 27.9253 151.985 28 151.07 28ZM106.849 9.18387H103.027L94.9491 27.6854H99.1766L100.9 23.5653H108.869L110.592 27.6854H114.927L106.849 9.18387ZM42.1078 9.31492H50.8422C53.01 9.31492 54.6493 9.85722 55.7603 10.9418C56.62 11.7818 57.0498 12.8229 57.0498 14.0648V14.1173C57.0498 14.6421 56.9833 15.1059 56.8494 15.5081C56.7241 15.8937 56.5439 16.2602 56.3141 16.597C56.097 16.9147 55.8361 17.2017 55.5385 17.4499C55.2468 17.6934 54.9283 17.9046 54.5889 18.0797C55.6786 18.4825 56.5364 19.0289 57.1618 19.72C57.7869 20.4114 58.0999 21.3693 58.0999 22.5937V22.646C58.0999 23.486 57.9343 24.2206 57.6028 24.8508C57.2713 25.4803 56.7963 26.0054 56.1779 26.4254C55.5596 26.8454 54.816 27.16 53.947 27.3701C53.0779 27.58 52.1149 27.6848 51.058 27.6848H42.1078V9.31492ZM22.1506 18.2398H22.1523L18.0771 14.2675L15.0655 17.2031H15.0652L14.7194 17.5405L14.0056 18.2362L14 18.2417L14.0056 18.2475L18.0771 22.2162L22.1523 18.2439L22.1542 18.2417L22.1506 18.2398ZM52.1497 16.2824C51.6116 16.5888 50.8846 16.7415 49.9689 16.7415H46.1459V12.8576H50.2381C51.1173 12.8576 51.7904 13.0196 52.2572 13.3433C52.7237 13.6672 52.9572 14.1351 52.9572 14.7472V14.7997C52.9572 15.4818 52.688 15.9762 52.1497 16.2824ZM51.0729 24.1424C51.9883 24.1424 52.7057 23.9809 53.2267 23.657C53.7471 23.3333 54.0076 22.8301 54.0076 22.1478V22.0955C54.0076 21.4832 53.7651 20.9978 53.2806 20.6388C52.7958 20.2807 52.0152 20.1012 50.9382 20.1012H46.1459V24.1427H51.0729V24.1424ZM67.4482 9.31492H63.3017V27.6853H67.4482V9.31492ZM73.7282 9.31492H77.5507L86.3817 20.6259V9.31492H90.4739V27.6853H86.9473L77.8202 16.0071V27.6853H73.7282V9.31492ZM107.388 19.9958L104.884 14.0388L102.381 19.9958H107.388ZM123.226 9.31492H119.402V27.6853H123.495V16.0071L132.622 27.6853H136.149V9.31492H132.056V20.6259L123.226 9.31492ZM177.865 9.31492H163.676V27.6853H178V24.0901H167.769V20.2322H176.654V16.637H167.769V12.9104H177.865V9.31492Z" fill="#B5B5B5"/>
</svg>

<svg width="178" height="36" fill="none" xmlns="http://www.w3.org/2000/svg"><path fill-rule="evenodd" clip-rule="evenodd" d="M18 8.137l-6.991 6.99L6.94 11.06 18 0l11.063 11.063-4.068 4.068L18 8.137zm-9.864 9.862l-4.068-4.067L0 18l4.068 4.068 4.068-4.069zm2.873 2.873l6.99 6.991 6.995-6.994 4.07 4.066-.001.002L18 36 6.94 24.94l-.005-.005 4.074-4.063zm20.923 1.197L36 18.001l-4.068-4.068-4.068 4.069 4.068 4.067z" fill="#B5B5B5"/><path fill-rule="evenodd" clip-rule="evenodd" d="M151.07 28c-1.382 0-2.665-.245-3.85-.735a9.467 9.467 0 01-3.069-2.007 9.106 9.106 0 01-2.019-3.005 9.458 9.458 0 01-.727-3.7V18.5c0-1.312.242-2.541.727-3.687a9.443 9.443 0 012.019-3.018c.861-.866 1.893-1.549 3.096-2.047 1.202-.499 2.531-.748 3.985-.748.879 0 1.682.07 2.409.21.727.14 1.386.332 1.979.577.579.238 1.13.537 1.642.892.499.347.967.734 1.4 1.155l-2.638 2.966c-.737-.647-1.486-1.155-2.248-1.522-.764-.368-1.62-.551-2.572-.551-.789 0-1.521.148-2.193.446a5.185 5.185 0 00-1.737 1.233 5.713 5.713 0 00-1.131 1.824 6.06 6.06 0 00-.403 2.218v.052c0 .787.134 1.53.403 2.23s.641 1.312 1.117 1.837c.476.525 1.05.94 1.723 1.247a5.3 5.3 0 002.221.46c1.078 0 1.988-.193 2.733-.578.745-.385 1.486-.91 2.221-1.575l2.639 2.598c-.467.491-.971.948-1.508 1.365a8.998 8.998 0 01-1.71 1.037 9.021 9.021 0 01-2.032.656c-.737.148-1.562.223-2.477.223zM106.849 9.184h-3.822l-8.078 18.501h4.228l1.723-4.12h7.969l1.723 4.12h4.335l-8.078-18.501zm-64.741.13h8.734c2.168 0 3.807.543 4.918 1.628.86.84 1.29 1.88 1.29 3.123v.052c0 .525-.067.989-.2 1.391a4.278 4.278 0 01-.536 1.089 4.187 4.187 0 01-.776.853c-.291.243-.61.455-.95.63 1.09.403 1.948.949 2.574 1.64.625.691.938 1.65.938 2.874v.052c0 .84-.166 1.575-.497 2.205a4.32 4.32 0 01-1.425 1.574c-.618.42-1.362.735-2.231.945-.87.21-1.832.315-2.889.315h-8.95V9.315zM22.15 18.24h.001l-4.075-3.972-3.012 2.935-.346.338-.713.695-.006.006.006.005 4.071 3.97 4.075-3.973.002-.002-.003-.002zm29.999-1.958c-.538.307-1.265.46-2.181.46h-3.823v-3.884h4.092c.88 0 1.552.162 2.02.485.466.324.7.792.7 1.404v.053c0 .682-.27 1.176-.808 1.482zm-1.077 7.86c.915 0 1.633-.161 2.154-.485.52-.324.78-.827.78-1.51v-.051c0-.613-.242-1.098-.726-1.457-.485-.358-1.266-.538-2.343-.538h-4.792v4.042h4.927zM67.448 9.315h-4.146v18.37h4.146V9.315zm6.28 0h3.823l8.83 11.31V9.316h4.093v18.37h-3.527L77.82 16.007v11.678h-4.092V9.315zm33.66 10.68l-2.504-5.956-2.503 5.957h5.007zm15.838-10.68h-3.824v18.37h4.093V16.007l9.127 11.678h3.527V9.315h-4.093v11.31l-8.83-11.31zm54.639 0h-14.189v18.37H178V24.09h-10.231v-3.858h8.885v-3.595h-8.885V12.91h10.096V9.315z" fill="#B5B5B5"/></svg>
